symbolic/32x32/apps/telegram.svg

<svg xmlns="http://www.w3.org/2000/svg" width="32" height="32" version="1">
 <circle style="opacity:0.2" cx="16" cy="17" r="14"/>
 <circle style="fill:#28a4e2" cx="16" cy="16" r="14"/>
 <path style="fill:#ffffff;opacity:0.2" d="M 16 2 A 14 14 0 0 0 2 16 A 14 14 0 0 0 2.0214844 16.585938 A 14 14 0 0 1 16 3 A 14 14 0 0 1 29.978516 16.414062 A 14 14 0 0 0 30 16 A 14 14 0 0 0 16 2 z"/>
 <path style="opacity:0.2" d="M 20.931,23.391 C 21.2,22.874 22.749,14.045 22.97,11.762 23.21,9.5006 21.961,9.9212 20.812,10.303 17.993,11.244 9.0808,15.057 6.6413,16.315 6.0408,16.561 5.7812,16.979 6.2182,17.34 6.5944,17.646 7.9712,18.067 9.0815,18.281 10.028,18.564 10.763,18.293 11.442,17.914 13.073,16.959 17.933,13.92 18.194,13.75 18.456,13.581 18.742,13.895 18.596,14.047 18.45,14.2 15.008,17.25 13.878,18.629 13.279,19.387 13.297,19.792 13.912,20.27 15.292,21.339 18.978,23.777 19.527,23.924 20.226,24.112 20.636,23.956 20.931,23.391 Z"/>
 <path style="fill:#ffffff" d="M 20.931,22.391 C 21.2,21.874 22.749,13.045 22.97,10.762 23.21,8.5005 21.961,8.9211 20.812,9.3032 17.993,10.244 9.0808,14.057 6.6413,15.315 6.0408,15.561 5.7812,15.979 6.2182,16.34 6.5944,16.646 7.9712,17.067 9.0815,17.281 10.028,17.564 10.763,17.293 11.442,16.914 13.073,15.959 17.933,12.92 18.194,12.75 18.456,12.581 18.742,12.895 18.596,13.047 18.45,13.2 15.008,16.25 13.878,17.629 13.279,18.387 13.297,18.792 13.912,19.27 15.292,20.339 18.978,22.777 19.527,22.924 20.226,23.112 20.636,22.956 20.931,22.391 Z"/>
</svg>

<svg xmlns="http://www.w3.org/2000/svg" width="32" height="32" version="1"><circle style="opacity:.2" cx="16" cy="17" r="14"/><circle style="fill:#28a4e2" cx="16" cy="16" r="14"/><path style="fill:#fff;opacity:.2" d="M16 2A14 14 0 0 0 2 16a14 14 0 0 0 .021.586A14 14 0 0 1 16 3a14 14 0 0 1 13.979 13.414A14 14 0 0 0 30 16 14 14 0 0 0 16 2z"/><path style="opacity:.2" d="M20.931 23.391c.269-.517 1.818-9.346 2.039-11.629.24-2.261-1.009-1.84-2.158-1.459-2.819.941-11.731 4.754-14.17 6.012-.601.246-.86.664-.424 1.025.376.306 1.753.727 2.864.941.946.283 1.681.012 2.36-.367 1.631-.955 6.491-3.994 6.752-4.164.262-.169.548.145.402.297-.146.153-3.588 3.203-4.718 4.582-.599.758-.581 1.163.034 1.641 1.38 1.069 5.066 3.507 5.615 3.654.699.188 1.109.032 1.404-.533z"/><path style="fill:#fff" d="M20.931 22.391c.269-.517 1.818-9.346 2.039-11.629.24-2.261-1.009-1.84-2.158-1.459-2.819.941-11.731 4.754-14.17 6.012-.601.246-.86.664-.424 1.025.376.306 1.753.727 2.864.941.946.283 1.681.012 2.36-.367 1.631-.955 6.491-3.994 6.752-4.164.262-.169.548.145.402.297-.146.153-3.588 3.203-4.718 4.582-.599.758-.581 1.163.034 1.641 1.38 1.069 5.066 3.507 5.615 3.654.699.188 1.109.032 1.404-.533z"/></svg>
